X: 27
M: 6/8
L: 1/8
K: F
V: 1
|: c |\
g2c b2a | Tg2f e2f | g2c b2a | gfe fc_e |\
d>bd B>dB | c>ac A>cA | B2G F2E | F2F F2 :|
|: A |\
{g}f2e {f}e2d | {e}d2c {d}c2B | ABc B2A | G2G G2 :|
|: c |\
{cd}_e2e ecA | B2B B2d | f2f fd=B | c2c c2a |\
b2a {a}g2f | b2a {a}g2f | cba gfe | f2f f2 :|
V: 2 clef=bass middle=d
z |\
f3- f2f | a2a agf | e2f e2c | f3 c2z |
f3- f2f | a2a agf | c'2a g2g | c'3 c2 :||: z | c2e g2f | e2d c2d |
c3 e2f | b2c' a2f | b3 g3 | a3 f3 | g2b c'2c | f3 F2 :||:
z | f3 c3 | A3 F2a | a3 gfg | f2f f2d' | d'2c' {d'}c'2b |
{c'}b2a {b}a2g | f3 g2f | c2c c2 :||: z | f3 f3 | d3 B2z | g3 g3 |
e3 c2c' | d'2c' {c'}b2a | d'2c' {c'}b2a | e2f c'2c | f2f f2 :|


